src/dsmComponents/Icons/heartrate-active-20px.svg

<?xml version="1.0" encoding="UTF-8"?>
<svg width="20px" height="19px" viewBox="0 0 20 19" version="1.1" xmlns="http://www.w3.org/2000/svg" xmlns:xlink="http://www.w3.org/1999/xlink">
    <!-- Generator: Sketch 59.1 (86144) - https://sketch.com -->
    <title>heartrate-active-20px</title>
    <desc>Created with Sketch.</desc>
    <defs>
        <path d="M8.18337341,6.80792966 L10.8924803,13.5239682 C11.0102152,13.8152592 11.2843435,14.0152606 11.5999647,14.0401419 L11.5999647,14.0401419 L11.6666299,14.0401419 C11.9591113,14.0400867 12.2301529,13.8880658 12.3807808,13.6395911 L12.3807808,13.6395911 L14.638231,9.91075269 L18.6264763,9.91075269 C16.072366,14.2788206 10.814982,18.58247 10.499989,18.8302333 C10.3479621,18.9218175 10.1770668,18.9782742 10,18.9954089 C9.81673464,19.0178646 9.63302859,18.9571757 9.50001103,18.8302333 C9.18501798,18.58247 3.92763397,14.2788206 1.37352365,9.91075269 L1.37352365,9.91075269 L5.83342526,9.91075269 C6.12590665,9.91069756 6.39694825,9.75867659 6.54757617,9.51020194 L6.54757617,9.51020194 L8.18337341,6.80792966 Z M14.1665747,0.000108056881 C15.7165629,-0.0093057654 17.2058516,0.596718425 18.3018798,1.6829649 C19.3979081,2.76921137 20.0093896,4.24520854 19.999891,5.78136351 C19.9760797,6.63435212 19.7891618,7.47512239 19.4489582,8.25899702 L19.4489582,8.25899702 L14.1665747,8.25899702 C13.8745966,8.25852864 13.6036683,8.4095461 13.4524238,8.65707014 L13.4524238,8.65707014 L11.8166266,11.3593424 L9.10751969,4.64578148 C8.98978481,4.35449048 8.71565647,4.15448914 8.4000353,4.12960783 C8.08347185,4.10206927 7.77931199,4.2581002 7.61921919,4.53015858 L7.61921919,4.53015858 L5.361769,8.25899702 L0.551041798,8.25899702 C0.210838214,7.47512239 0.0239203061,6.63435212 0.000109029944,5.78136351 C-0.00938956473,4.24520854 0.602091934,2.76921137 1.69812016,1.6829649 C2.79414839,0.596718425 4.28343706,-0.0093057654 5.83342526,0.000108056881 C7.39877006,0.010877258 8.89641973,0.634276348 10,1.73456211 C11.1035803,0.634276348 12.6012299,0.010877258 14.1665747,0.000108056881 Z" id="path-1"></path>
    </defs>
    <g id="Final" stroke="none" stroke-width="1" fill="none" fill-rule="evenodd">
        <g id="All-Nucleo-Icons" transform="translate(-463.000000, -3607.000000)">
            <g id="Solo/Nucleo/20px/heartrate-active" transform="translate(461.000000, 3604.000000)">
                <g transform="translate(2.000000, 3.000000)" id="heartbeat">
                    <g>
                        <g id="Colour/Default-Colour">
                            <mask id="mask-2" fill="white">
                                <use xlink:href="#path-1"></use>
                            </mask>
                            <g id="Mask" fill-rule="nonzero"></g>
                            <g id="colour/neutral/chia" mask="url(#mask-2)" fill="#737373">
                                <g transform="translate(-22.000000, -22.000000)" id="Colour">
                                    <rect x="0" y="0" width="64" height="64"></rect>
                                </g>
                            </g>
                        </g>
                    </g>
                </g>
            </g>
        </g>
    </g>
</svg>

<svg width="20" height="19" xmlns="http://www.w3.org/2000/svg" xmlns:xlink="http://www.w3.org/1999/xlink"><defs><path d="M8.183 6.808l2.71 6.716a.833.833 0 00.707.516h.067a.835.835 0 00.714-.4l2.257-3.73h3.988c-2.554 4.369-7.811 8.672-8.126 8.92a1.191 1.191 0 01-.5.165.616.616 0 01-.5-.165c-.315-.248-5.572-4.551-8.126-8.92h4.46a.835.835 0 00.714-.4l1.635-2.702zM14.167 0a5.823 5.823 0 014.135 1.683A5.72 5.72 0 0120 5.781a6.692 6.692 0 01-.551 2.478h-5.282a.835.835 0 00-.715.398l-1.635 2.702-2.71-6.713A.833.833 0 008.4 4.13a.823.823 0 00-.78.4L5.361 8.26H.55A6.692 6.692 0 010 5.782a5.72 5.72 0 011.697-4.098A5.825 5.825 0 015.833 0 5.96 5.96 0 0110 1.735 5.96 5.96 0 0114.167 0z" id="heartrate-active-20px_svg__a"/></defs><use fill="#737373" xlink:href="#heartrate-active-20px_svg__a" fill-rule="evenodd"/></svg>
